<?xml version="1.0" encoding="UTF-8"?>
<map version="1.10" tiledversion="1.12.1" orientation="orthogonal" renderorder="right-down" width="128" height="128" tilewidth="16" tileheight="16" infinite="0" nextlayerid="2" nextobjectid="1">
 <tileset firstgid="1" source="mapchip.tsx"/>
 <layer id="1" name="Tile Layer 1" width="128" height="128">
  <data encoding="csv">
9,9,9,6,2,2,2,2,5,5,5,5,8,8,8,7,9,9,9,6,2,2,2,2,5,5,5,5,8,8,8,7,9,9,9,6,2,2,2,2,5,5,5,5,8,8,8,7,9,9,9,6,2,2,2,2,5,5,5,5,8,8,8,8,5,5,5,5,8,8,8,7,9,9,9,6,2,2,2,2,5,5,5,5,8,8,8,7,9,9,9,6,2,2,2,2,2,2,2,2,2,2,2,2,2,2,2,2,2,2,2,2,2,2,2,2,2,2,2,2,2,2,2,2,2,2,2,2,
7,1,1,1,1,1,1,1,1,1,1,1,1,1,1,1,1,1,1,1,1,1,1,1,1,1,1,1,1,1,1,1,1,1,1,1,1,1,1,1,1,1,1,1,1,1,1,1,1,1,1,1,1,1,1,1,1,1,1,1,1,1,1,1,1,1,1,1,1,1,1,1,1,1,1,1,1,1,1,1,1,1,1,1,1,1,1,1,1,1,1,104,2,2,2,2,2,2,2,2,2,2,2,2,2,2,2,2,2,2,2,2,2,2,2,2,2,2,2,2,2,2,2,2,2,2,2,2,
7,1,1,1,1,1,1,1,1,1,1,1,1,1,1,1,1,1,1,1,1,1,1,1,1,1,1,1,1,1,1,1,1,1,1,1,1,1,1,1,1,1,1,1,1,1,1,1,1,1,1,1,1,1,1,1,1,1,1,1,1,1,1,1,1,1,1,1,1,1,1,1,1,1,1,1,1,1,1,1,1,1,1,1,1,1,1,1,1,1,1,1,2,2,2,2,2,2,2,2,2,2,2,2,2,2,2,2,2,2,2,2,2,2,2,2,2,2,2,2,2,2,2,2,2,2,2,2,
7,1,1,1,1,1,1,1,1,1,1,1,1,1,1,1,1,1,1,73,74,75,76,26,26,26,26,26,26,77,78,79,80,1,1,1,1,1,1,1,1,1,1,1,1,1,1,1,1,1,1,1,1,1,1,1,1,1,1,1,1,1,1,1,1,1,1,1,1,1,1,1,1,1,1,1,1,1,1,1,1,1,1,1,1,1,1,1,1,1,1,1,2,2,2,2,2,2,2,2,2,2,2,2,2,2,2,2,2,2,2,2,2,2,2,2,2,2,2,2,2,2,2,2,2,2,2,2,
7,1,1,1,1,1,1,1,1,1,1,1,1,1,1,1,1,19,18,3,3,3,3,3,3,3,3,3,3,3,3,3,3,13,14,1,1,1,1,1,1,1,1,1,1,1,1,1,1,1,1,1,1,1,1,1,1,1,1,1,1,1,1,1,1,1,1,1,1,1,1,1,1,1,1,1,1,1,1,1,1,1,1,1,1,1,1,1,1,1,1,1,5,2,2,2,2,2,2,2,2,2,2,2,2,2,2,2,2,2,2,2,2,2,2,2,2,2,2,2,2,2,2,2,2,2,2,2,
5,1,1,1,1,1,1,1,1,1,1,1,1,1,1,19,18,3,3,3,3,3,3,3,3,3,3,3,3,3,3,3,3,3,3,13,14,1,1,1,1,1,1,1,1,1,1,1,1,1,1,1,1,1,1,1,1,1,1,1,1,1,1,1,1,1,1,1,1,1,1,1,1,1,1,1,1,1,1,1,1,1,1,1,1,1,1,1,1,1,1,1,5,2,2,2,2,2,2,2,2,2,2,2,2,2,2,2,2,2,2,2,2,2,2,2,2,2,2,2,2,2,2,2,2,2,2,2,
5,1,1,1,1,1,1,1,1,1,1,1,1,1,39,3,3,3,3,3,3,3,3,3,3,3,3,3,3,3,3,3,3,3,3,3,3,13,14,1,1,1,1,1,1,1,1,1,1,1,1,1,1,1,1,1,1,1,1,1,1,1,1,1,1,1,1,1,1,1,1,1,1,1,1,1,1,1,1,1,1,1,1,1,1,1,1,1,1,1,1,1,5,2,2,2,2,2,2,2,2,2,2,2,2,2,2,2,2,2,2,2,2,2,2,2,2,2,2,2,2,2,2,2,2,2,2,2,
5,1,1,1,1,1,1,1,1,1,1,1,1,39,3,3,3,3,3,3,3,3,3,3,3,3,3,3,3,3,3,3,3,3,3,3,3,3,3,13,14,1,1,1,1,1,1,1,1,1,1,1,1,1,1,1,1,1,1,1,1,1,1,1,1,1,1,1,1,1,1,1,1,1,1,1,1,1,1,1,1,1,1,1,1,1,1,1,1,1,1,1,5,2,2,2,2,2,2,2,2,2,2,2,2,2,2,2,2,2,2,2,2,2,2,2,2,2,2,2,2,2,2,2,2,2,2,2,
5,1,1,1,1,1,1,1,1,1,1,1,39,3,3,3,3,3,3,3,3,3,3,3,3,3,3,3,3,3,3,3,3,3,3,3,3,3,3,3,3,13,14,1,1,1,1,1,1,1,1,1,1,1,1,1,1,1,1,1,1,1,1,1,1,1,1,1,1,1,1,1,1,1,1,1,1,1,1,1,1,1,1,1,1,1,1,1,1,1,1,1,7,2,2,2,2,2,2,2,2,2,2,2,2,2,2,2,2,2,2,2,2,2,2,2,2,2,2,2,2,2,2,2,2,2,2,2,
2,1,1,1,1,1,1,1,1,1,1,39,3,3,3,3,3,3,3,3,3,3,3,3,3,3,3,3,3,3,3,3,3,3,3,3,3,3,3,3,3,3,3,13,14,1,1,1,1,1,1,1,1,1,1,1,1,1,1,1,1,1,1,1,1,1,1,1,1,1,1,1,1,1,1,1,1,1,1,1,1,1,1,1,1,1,1,1,1,1,1,1,7,2,2,2,2,2,2,2,2,2,2,2,2,2,2,2,2,2,2,2,2,2,2,2,2,2,2,2,2,2,2,2,2,2,2,2,
2,1,1,1,1,1,1,1,1,1,39,3,3,3,3,3,3,3,3,3,3,3,3,3,3,3,3,3,3,3,3,3,3,3,3,3,3,3,3,3,3,3,3,3,3,13,14,1,1,1,1,1,1,1,1,1,1,1,1,1,1,1,1,1,1,1,1,1,1,1,1,1,1,1,1,1,1,1,1,1,1,1,1,1,1,1,1,1,1,1,1,1,7,2,2,2,2,2,2,2,2,2,2,2,2,2,2,2,2,2,2,2,2,2,2,2,2,2,2,2,2,2,2,2,2,2,2,2,
2,1,1,1,1,1,1,1,1,52,3,3,3,3,3,3,3,3,3,3,3,3,3,3,3,3,3,3,3,3,3,3,3,3,3,3,3,3,3,3,3,3,3,3,3,3,3,13,14,1,1,1,1,1,1,1,1,1,1,1,1,1,1,1,1,1,1,1,1,1,1,1,1,1,1,1,1,1,1,1,1,1,1,1,1,1,1,1,1,1,1,1,7,2,2,2,2,2,2,2,2,2,2,2,2,2,2,2,2,2,2,2,2,2,2,2,2,2,2,2,2,2,2,2,2,2,2,2,
2,1,1,1,1,1,1,1,1,53,3,3,3,3,3,3,3,3,3,3,3,3,3,3,3,3,3,3,3,3,3,3,3,3,3,3,3,3,3,3,3,3,3,3,3,3,3,3,3,13,14,1,1,1,1,1,1,1,1,1,1,1,1,1,1,1,1,1,1,1,1,1,1,1,1,1,1,1,1,1,1,1,1,1,1,1,1,1,1,1,1,1,6,2,2,2,2,2,2,2,2,2,2,2,2,2,2,2,2,2,2,2,2,2,2,2,2,2,2,2,2,2,2,2,2,2,2,2,
6,1,1,1,1,1,1,1,52,3,3,3,3,3,3,3,3,3,3,3,3,3,3,3,3,81,54,54,82,3,3,3,3,3,3,3,3,3,3,3,3,3,3,3,3,3,3,3,3,3,3,13,14,1,1,1,1,1,1,1,1,1,1,1,1,1,1,1,1,1,1,1,1,1,1,1,1,1,1,1,1,1,1,1,1,1,1,1,1,1,1,1,6,2,2,2,2,2,2,2,2,2,2,2,2,2,2,2,2,2,2,2,2,2,2,2,2,2,2,2,2,2,2,2,2,2,2,2,
6,1,1,1,1,1,1,1,53,3,3,3,3,3,3,3,3,3,3,3,3,105,106,107,108,34,34,34,34,109,110,111,112,3,3,3,3,3,3,3,3,3,3,3,3,3,3,3,3,3,3,3,3,13,14,1,1,1,1,1,1,1,1,1,1,1,1,1,1,1,1,1,1,1,1,1,1,1,1,1,1,1,1,1,1,1,1,1,1,1,1,1,6,2,2,2,2,2,2,2,2,2,2,2,2,2,2,2,2,2,2,2,2,2,2,2,2,2,2,2,2,2,2,2,2,2,2,2,
6,1,1,1,1,1,1,52,3,3,3,3,3,3,3,3,3,3,3,42,43,113,114,115,1,1,1,1,1,1,116,117,118,55,35,3,3,3,3,3,3,3,3,3,3,3,3,3,3,3,3,3,3,3,3,13,14,1,1,1,1,1,1,1,1,1,1,1,1,1,1,1,1,1,1,1,1,1,1,1,1,1,1,1,1,1,1,1,1,1,1,1,6,2,2,2,2,2,2,2,2,2,2,2,2,2,2,2,2,2,2,2,2,2,2,2,2,2,2,2,2,2,2,2,2,2,2,2,
6,1,1,1,1,1,1,53,3,3,3,3,3,3,3,3,3,3,119,44,45,1,1,1,1,1,1,1,1,1,1,1,1,36,37,56,35,3,3,3,3,3,3,3,3,3,3,3,3,3,3,3,3,3,3,3,3,13,14,1,1,1,1,1,1,1,1,1,1,1,1,1,1,1,1,1,1,1,1,1,1,1,1,1,1,1,1,1,1,1,1,1,2,2,2,2,2,2,2,2,2,2,2,2,2,2,2,2,2,2,2,2,2,2,2,2,2,2,2,2,2,2,2,2,2,2,2,2,
7,1,1,1,1,1,83,3,3,3,3,3,3,3,3,3,3,120,121,1,1,1,1,1,1,1,1,1,1,1,1,1,1,1,1,36,37,56,35,3,3,3,3,3,3,3,3,3,3,3,3,3,3,3,3,3,3,3,3,13,14,1,1,1,1,1,1,1,1,1,1,1,1,1,1,1,1,1,1,1,1,1,1,1,1,1,1,1,1,1,1,1,2,2,2,2,2,2,2,2,2,2,2,2,2,2,2,2,2,2,2,2,2,2,2,2,2,2,2,2,2,2,2,2,2,2,2,2,
7,1,1,1,1,1,84,3,3,3,3,3,3,3,3,3,122,123,1,1,1,1,1,1,1,1,1,1,1,1,1,1,1,1,1,1,1,36,37,124,16,3,3,3,3,3,3,3,3,3,3,3,3,3,3,3,3,3,3,3,3,13,14,1,1,1,1,1,1,1,1,1,1,1,1,1,1,1,1,1,1,1,1,1,1,1,1,1,1,1,1,1,2,2,2,2,2,2,2,2,2,2,2,2,2,2,2,2,2,2,2,2,2,2,2,2,2,2,2,2,2,2,2,2,2,2,2,2,
7,1,1,1,1,1,85,3,3,3,3,3,3,3,3,3,125,1,1,1,1,1,1,1,1,1,1,1,1,1,1,1,1,1,1,1,1,1,1,1,1,17,16,3,3,3,3,3,3,3,3,3,3,3,3,3,3,3,3,3,3,3,3,13,14,1,1,1,1,1,1,1,1,1,1,1,1,1,1,1,1,1,1,1,1,1,1,1,1,1,1,1,2,5,5,5,5,8,8,8,7,9,9,9,6,2,2,2,2,5,5,5,5,8,8,8,7,9,9,9,6,2,2,2,2,5,5,5,
7,1,1,1,1,1,86,3,3,3,3,3,3,3,3,126,127,1,1,1,1,5,5,5,5,8,8,8,7,9,9,9,6,2,1,1,1,1,1,1,1,1,1,17,16,3,3,3,3,3,3,3,3,3,3,3,3,3,3,3,3,3,3,3,3,13,14,1,1,1,1,1,1,1,1,1,1,1,1,1,1,1,1,1,1,1,1,1,1,1,1,1,1,1,1,1,1,1,1,1,1,1,1,1,1,1,1,1,1,1,1,1,1,1,1,1,1,1,1,1,1,1,1,1,1,1,1,5,
5,1,1,1,1,83,3,3,3,3,3,3,3,3,3,128,129,1,1,1,1,2,2,2,2,2,2,2,2,2,2,2,2,2,1,1,1,1,1,1,1,1,1,1,1,17,16,3,3,3,3,3,3,3,3,3,3,3,3,3,3,3,3,3,3,3,3,13,14,1,1,1,1,1,1,1,1,1,1,1,1,1,1,1,1,1,1,1,1,1,1,1,1,1,1,1,1,1,1,1,1,1,1,1,1,1,1,1,1,1,1,1,1,1,1,1,1,1,1,1,1,1,1,1,1,1,1,7,
5,1,1,1,1,84,3,3,3,3,3,3,3,3,3,130,131,1,1,1,1,2,2,2,2,2,2,2,2,2,2,2,2,2,1,1,1,1,1,1,1,1,1,1,1,1,1,17,16,3,3,3,3,3,3,3,3,3,3,3,3,3,3,3,3,3,3,3,3,13,14,1,1,1,1,1,1,1,1,1,1,1,1,1,1,1,1,1,1,1,1,1,1,1,1,1,1,1,1,1,1,1,1,1,1,1,1,1,1,1,1,1,1,1,1,1,1,1,1,1,1,1,1,1,1,1,1,7,
5,1,1,1,1,85,3,3,3,3,3,3,3,3,3,132,1,1,1,1,1,2,2,2,2,2,2,2,2,2,2,2,2,2,1,1,1,1,1,1,1,1,1,1,1,1,1,1,1,17,16,3,3,3,3,3,3,3,3,3,3,3,3,3,3,3,3,3,3,3,3,13,14,1,1,1,1,1,1,1,1,1,1,1,1,1,1,1,1,1,1,1,1,1,1,1,1,1,1,1,1,1,1,1,1,1,1,1,1,1,1,1,1,1,1,1,1,1,1,1,1,1,1,1,1,1,1,7,
5,1,1,1,1,86,3,3,3,3,3,3,3,3,133,134,1,1,1,1,1,2,2,2,2,2,2,2,2,2,2,2,2,5,1,1,1,1,1,1,1,1,1,1,1,1,1,1,1,1,1,17,16,3,3,3,3,3,3,3,3,3,3,3,3,3,3,3,3,3,3,3,3,13,14,1,1,1,1,1,1,1,1,1,1,1,1,1,1,1,1,1,1,1,1,1,1,1,1,1,1,1,1,1,1,1,1,1,1,1,1,1,1,1,1,1,1,1,1,1,1,1,1,1,1,1,1,7,
2,1,1,1,1,10,3,3,3,3,3,3,3,3,87,40,1,1,1,1,1,6,2,2,2,2,2,2,2,2,2,2,2,5,1,1,1,1,1,1,1,1,1,1,1,1,1,1,1,1,1,1,1,17,16,3,3,3,3,3,3,3,3,3,3,3,3,3,3,3,3,3,3,3,3,13,14,1,1,1,1,1,1,1,1,1,1,1,1,1,1,1,1,1,1,1,1,1,1,1,1,1,1,1,1,1,1,1,1,1,1,1,1,1,1,1,1,1,1,1,1,1,1,1,1,1,1,6,
2,1,1,1,1,10,3,3,3,3,3,3,3,3,11,1,1,1,1,1,1,6,2,2,2,2,2,2,2,2,2,2,2,5,1,1,1,1,1,1,1,1,1,1,1,1,1,1,1,1,1,1,1,1,1,17,16,3,3,3,3,3,3,3,3,3,3,3,3,3,3,3,3,3,3,3,3,13,14,1,1,1,1,1,1,1,1,1,1,1,1,1,1,1,1,1,1,1,1,1,1,1,1,1,1,1,1,1,1,1,1,1,1,1,1,1,1,1,1,1,1,1,1,1,1,1,1,6,
2,1,1,1,1,10,3,3,3,3,3,3,3,3,11,1,1,1,1,1,1,6,2,2,2,2,2,2,2,2,2,2,2,5,1,1,1,1,1,1,1,1,1,1,1,1,1,1,1,1,1,1,1,1,1,1,1,17,16,3,3,3,3,3,3,3,3,3,3,3,3,3,3,3,3,3,3,3,3,13,14,1,1,1,1,1,1,1,1,1,1,1,1,1,1,1,1,1,1,1,1,1,1,1,1,1,1,1,1,1,1,1,1,1,1,1,1,1,1,1,1,1,1,1,1,1,1,6,
2,1,1,1,1,10,3,3,3,3,3,3,3,3,11,1,1,1,1,1,1,6,2,2,2,2,2,2,2,2,2,2,2,7,1,1,1,1,1,1,1,1,1,1,1,1,1,1,1,1,1,1,1,1,1,1,1,1,1,17,16,3,3,3,3,3,3,3,3,3,3,3,3,3,3,3,3,3,3,3,3,13,14,1,1,1,1,1,1,1,1,1,1,1,1,1,1,1,1,1,1,1,1,1,1,1,1,1,1,1,1,1,1,1,1,1,1,1,1,1,1,1,1,1,1,1,1,6,
6,1,1,1,1,10,3,3,3,3,3,3,3,3,11,1,1,1,1,1,1,7,2,2,2,2,2,2,2,2,2,2,2,7,1,1,1,1,1,1,1,1,1,1,1,1,1,1,1,1,1,1,1,1,1,1,1,1,1,1,1,17,16,3,3,3,3,3,3,3,3,3,3,3,3,3,3,3,3,3,3,3,3,13,14,1,1,1,1,1,1,1,1,1,1,1,1,1,1,1,1,1,1,1,1,1,1,1,1,1,1,1,1,1,1,1,1,1,1,1,1,1,1,1,1,1,1,2,
6,1,1,1,1,12,4,4,4,4,4,4,4,4,15,1,1,1,1,1,1,7,2,2,2,2,2,2,2,2,2,2,2,7,1,1,1,1,1,1,1,1,1,1,1,1,1,1,1,1,1,1,1,1,1,1,1,1,1,1,1,1,1,17,16,3,3,3,3,3,3,3,3,3,3,3,3,3,3,3,3,3,3,3,3,13,14,1,1,1,1,1,1,1,1,1,1,1,1,1,1,1,1,1,1,1,1,1,1,1,1,1,1,1,1,1,1,1,1,1,1,1,1,1,1,1,1,2,
6,1,1,1,1,12,4,4,4,4,4,4,4,4,15,1,1,1,1,1,1,7,2,2,2,2,2,2,2,2,2,2,2,7,1,1,1,1,1,1,1,1,1,1,1,1,1,1,1,1,1,1,1,1,1,1,1,1,1,1,1,1,1,1,1,17,16,3,3,3,3,3,3,3,3,3,3,3,3,3,3,3,3,3,3,3,3,13,14,1,1,1,1,1,1,1,1,1,1,1,1,1,1,1,1,1,1,1,1,1,1,1,1,1,1,1,1,1,1,1,1,1,1,1,1,1,1,2,
6,1,1,1,1,10,3,3,3,3,3,3,3,3,11,1,1,1,1,1,1,7,2,2,2,2,2,2,2,2,2,2,2,6,1,1,1,1,1,1,1,1,1,1,1,1,1,1,1,1,1,1,1,1,1,1,1,1,1,1,1,1,1,1,1,1,1,17,16,3,3,3,3,3,3,3,3,3,3,3,3,3,3,3,3,3,3,3,3,13,14,1,1,1,1,1,1,1,1,1,1,1,1,1,1,1,1,1,1,1,1,1,1,1,1,1,1,1,1,1,1,1,1,1,1,1,1,2,
7,1,1,1,1,10,3,3,3,3,3,3,3,3,11,1,1,1,1,1,1,5,2,2,2,2,2,2,2,2,2,2,2,6,1,1,1,1,1,1,1,1,1,1,1,1,1,1,1,1,1,1,1,1,1,1,1,1,1,1,1,1,1,1,1,1,1,1,1,17,16,3,3,3,3,3,3,3,3,3,3,3,3,3,3,3,3,3,3,3,3,13,14,1,1,1,1,1,1,1,1,1,1,1,1,1,1,1,1,1,1,1,1,1,1,1,1,1,1,1,1,1,1,1,1,1,1,5,
7,1,1,1,1,12,4,4,4,4,4,4,4,4,15,1,1,1,1,1,1,5,2,2,2,2,2,2,2,2,2,2,2,6,1,1,1,1,1,1,1,1,1,1,1,1,1,1,1,1,1,1,1,1,1,1,1,1,1,1,1,1,1,1,1,1,1,1,1,1,1,17,16,3,3,3,3,3,3,3,3,3,3,3,3,3,3,3,3,3,3,3,3,13,14,1,1,1,1,1,1,1,1,1,1,1,1,1,1,1,1,1,1,1,1,1,1,1,1,1,1,1,1,1,1,1,1,5,
7,1,1,1,1,12,4,4,4,4,4,4,4,4,15,1,1,1,1,1,1,5,2,2,2,2,2,2,2,2,2,2,2,6,1,1,1,1,1,1,1,1,1,1,1,1,1,1,1,1,1,1,1,1,1,1,1,1,1,1,1,1,1,1,1,1,1,1,1,1,1,1,1,17,16,3,3,3,3,3,3,3,3,3,3,3,3,3,3,3,3,3,3,3,3,13,14,1,1,1,1,1,1,1,1,1,1,1,1,1,1,1,1,1,1,1,1,1,1,1,1,1,1,1,1,1,1,5,
7,1,1,1,1,10,3,3,3,3,3,3,3,3,11,1,1,1,1,1,1,5,2,2,2,2,2,2,2,2,2,2,2,2,1,1,1,1,1,1,1,1,1,1,1,1,1,1,1,1,1,1,1,1,1,1,1,1,1,1,1,1,1,1,1,1,1,1,1,1,1,1,1,1,1,17,16,3,3,3,3,3,3,3,3,3,3,3,3,3,3,3,3,3,3,3,3,13,14,1,1,1,1,1,1,1,1,1,1,1,1,1,1,1,1,1,1,1,1,1,1,1,1,1,1,1,1,5,
5,1,1,1,1,10,3,3,3,3,3,3,3,3,11,1,1,1,1,1,1,2,2,2,2,2,2,2,2,2,2,2,2,2,1,1,1,1,1,1,1,1,1,1,1,1,1,1,1,1,1,1,1,1,1,1,1,1,1,1,1,1,1,1,1,1,1,1,1,1,1,1,1,1,1,1,1,17,16,3,3,3,3,3,3,3,3,3,3,3,3,3,3,3,3,3,3,3,3,13,14,1,1,1,1,1,1,1,1,1,1,1,1,1,1,1,1,1,1,1,1,1,1,1,1,1,1,7,
5,1,1,1,1,12,4,4,4,4,4,4,4,4,15,1,1,1,1,1,1,2,2,2,2,2,2,2,2,2,2,2,2,2,1,1,1,1,1,1,1,1,1,1,1,1,1,1,1,1,1,1,1,1,1,1,1,1,1,1,1,1,1,1,1,1,1,1,1,1,1,1,1,1,1,1,1,1,1,17,16,3,3,3,3,3,3,3,3,3,3,3,3,3,3,3,3,3,3,3,3,13,14,1,1,1,1,1,1,1,1,1,1,1,1,1,1,1,1,1,1,1,1,1,1,1,1,7,
5,1,1,1,1,12,4,4,4,4,4,4,4,4,15,1,1,1,1,1,1,2,2,2,2,2,2,2,2,2,2,2,2,2,1,1,1,1,1,1,1,1,1,1,1,1,1,1,1,1,1,1,1,1,1,1,1,1,1,1,1,1,1,1,1,1,1,1,1,1,1,1,1,1,1,1,1,1,1,1,1,17,16,3,3,3,3,3,3,3,3,3,3,3,3,3,3,3,3,3,3,3,3,13,14,1,1,1,1,1,1,1,1,1,1,1,1,1,1,1,1,1,1,1,1,1,1,7,
5,1,1,1,1,10,3,3,3,3,3,3,3,3,11,1,1,1,1,1,1,2,2,2,2,2,2,2,2,2,2,2,2,5,1,1,1,1,1,1,1,1,1,1,1,1,1,1,1,1,1,1,1,1,1,1,1,1,1,1,1,1,1,1,1,1,1,1,1,1,1,1,1,1,1,1,1,1,1,1,1,1,1,17,16,3,3,3,3,3,3,3,3,3,3,3,3,3,3,3,3,3,3,3,3,13,14,1,1,1,1,1,1,1,1,1,1,1,1,1,1,1,1,1,1,1,1,7,
2,1,1,1,1,10,3,3,3,3,3,3,3,3,11,1,1,1,1,1,1,6,2,2,2,2,2,2,2,2,2,2,2,5,1,1,1,1,1,1,1,1,1,1,1,1,1,1,1,1,1,1,1,1,1,1,1,1,1,1,1,1,1,1,1,1,1,1,1,1,1,1,1,1,1,1,1,1,1,1,1,1,1,1,1,17,16,3,3,3,3,3,3,3,3,3,3,3,3,3,3,3,3,3,3,3,3,13,14,1,1,1,1,1,1,1,1,1,1,1,1,1,1,1,1,1,1,6,
2,1,1,1,1,12,4,4,4,4,4,4,4,4,15,1,1,1,1,1,1,6,2,2,2,2,2,2,2,2,2,2,2,5,1,1,1,1,1,1,1,1,1,1,1,1,1,1,1,1,1,1,1,1,1,1,1,1,1,1,1,1,1,1,1,1,1,1,1,1,1,1,1,1,1,1,1,1,1,1,1,1,1,1,1,1,1,17,16,3,3,3,3,3,3,3,3,3,3,3,3,3,3,3,3,3,3,3,3,13,14,1,1,1,1,1,1,1,1,1,1,1,1,1,1,1,1,6,
2,1,1,1,1,12,4,4,4,4,4,4,4,4,15,1,1,1,1,1,1,6,2,2,2,2,2,2,2,2,2,2,2,5,1,1,1,1,1,1,1,1,1,1,1,1,1,1,1,1,1,1,1,1,1,1,1,1,1,1,1,1,1,1,1,1,1,1,1,1,1,1,1,1,1,1,1,1,1,1,1,1,1,1,1,1,1,1,1,17,16,3,3,3,3,3,3,3,3,3,3,3,3,3,3,3,3,3,3,3,3,13,14,1,1,1,1,1,1,1,1,1,1,1,1,1,1,6,
2,1,1,1,1,10,3,3,3,3,3,3,3,3,11,1,1,1,1,1,1,6,2,2,2,2,2,2,2,2,2,2,2,7,1,1,1,1,1,1,1,1,1,1,1,1,1,1,1,1,1,1,1,1,1,1,1,1,1,1,1,1,1,1,1,1,1,1,1,1,1,1,1,1,1,1,1,1,1,1,1,1,1,1,1,1,1,1,1,1,1,17,16,3,3,3,3,3,3,3,3,3,3,3,3,3,3,3,3,3,3,3,3,13,14,1,1,1,1,1,1,1,1,1,1,1,1,6,
6,1,1,1,1,10,3,3,3,3,3,3,3,3,11,1,1,1,1,1,1,7,2,2,2,2,2,2,2,2,2,2,2,7,1,1,1,1,1,1,1,1,1,1,1,1,1,1,1,1,1,1,1,1,1,1,1,1,1,1,1,1,1,1,1,1,1,1,1,1,1,1,1,1,1,1,1,1,1,1,1,1,1,1,1,1,1,1,1,1,1,1,1,17,16,3,3,3,3,3,3,3,3,3,3,3,3,3,3,3,3,3,3,3,3,13,14,1,1,1,1,1,1,1,1,1,1,2,
6,1,1,1,1,12,4,4,4,4,4,4,4,4,15,1,1,1,1,1,1,7,2,2,2,2,2,2,2,2,2,2,2,7,1,1,1,1,1,1,1,1,1,1,1,1,1,1,1,1,1,1,1,1,1,1,1,1,1,1,1,1,1,1,1,1,1,1,1,1,1,1,1,1,1,1,1,1,1,1,1,1,1,1,1,1,1,1,1,1,1,1,1,1,1,17,16,3,3,3,3,3,3,3,3,3,3,3,3,3,3,3,3,3,3,3,3,33,1,1,1,1,1,1,1,1,1,2,
6,1,1,1,1,12,4,4,4,4,4,4,4,4,15,1,1,1,1,1,1,7,2,2,2,2,2,2,2,2,2,2,2,7,9,9,9,6,2,2,2,2,5,5,5,5,8,8,8,7,9,9,9,6,2,2,2,2,5,5,5,5,8,8,8,7,9,9,9,6,2,2,2,2,5,5,5,5,8,8,8,7,9,9,9,6,1,1,1,1,1,1,1,1,1,1,1,17,16,3,3,3,3,3,3,3,3,3,3,3,3,3,3,3,3,3,3,3,33,1,1,1,1,1,1,1,1,2,
6,1,1,1,1,10,3,3,3,3,3,3,3,3,11,1,1,1,1,1,1,7,2,2,2,2,2,2,2,2,2,2,2,2,2,2,2,2,2,2,2,2,2,2,2,2,2,2,2,2,2,2,2,2,2,2,2,2,2,2,2,2,2,2,2,2,2,2,2,2,2,2,2,2,2,2,2,2,2,2,2,2,2,2,2,2,1,1,1,1,1,1,1,1,1,1,1,1,1,17,16,3,3,3,3,3,3,3,3,3,3,3,3,3,3,3,3,3,3,33,1,1,1,1,1,1,1,2,
7,1,1,1,1,10,3,3,3,3,3,3,3,3,11,1,1,1,1,1,1,5,2,2,2,2,2,2,2,2,2,2,2,2,2,2,2,2,2,2,2,2,2,2,2,2,2,2,2,2,2,2,2,2,2,2,2,2,2,2,2,2,2,2,2,2,2,2,2,2,2,2,2,2,2,2,2,2,2,2,2,2,2,2,2,2,1,1,1,1,1,1,1,1,1,1,1,1,1,1,1,17,16,3,3,3,3,3,3,3,3,3,3,3,3,3,3,3,3,3,22,1,1,1,1,1,1,5,
7,1,1,1,1,12,4,4,4,4,4,4,4,4,15,1,1,1,1,1,1,5,2,2,2,2,2,2,2,2,2,2,2,2,2,2,2,2,2,2,2,2,2,2,2,2,2,2,2,2,2,2,2,2,2,2,2,2,2,2,2,2,2,2,2,2,2,2,2,2,2,2,2,2,2,2,2,2,2,2,2,2,2,2,2,2,1,1,1,1,1,1,1,1,1,1,1,1,1,1,1,1,1,17,16,3,3,3,3,3,3,3,3,3,3,3,3,3,3,3,23,1,1,1,1,1,1,5,
7,1,1,1,1,12,4,4,4,4,4,4,4,4,15,1,1,1,1,1,1,5,2,2,2,2,2,2,2,2,2,2,2,2,2,2,2,2,2,2,2,2,2,2,2,2,2,2,2,2,2,2,2,2,2,2,2,2,2,2,2,2,2,2,2,2,2,2,2,2,2,2,2,2,2,2,2,2,2,2,2,2,2,2,2,2,1,1,1,1,1,1,1,1,1,1,1,1,1,1,1,1,1,1,1,55,35,3,3,3,3,3,3,3,3,3,3,3,3,3,3,135,1,1,1,1,1,5,
7,1,1,1,1,10,3,3,3,3,3,3,3,3,11,1,1,1,1,1,1,5,2,2,2,2,2,2,2,2,2,2,2,2,2,2,2,2,2,2,2,2,2,2,2,2,2,2,2,2,2,2,2,2,2,2,2,2,2,2,2,2,2,2,2,2,2,2,2,2,2,2,2,2,2,2,2,2,2,2,2,2,2,2,2,5,5,5,5,8,8,8,7,9,9,9,6,2,2,2,2,5,1,1,1,36,37,56,35,3,3,3,3,3,3,3,3,3,3,3,3,136,1,1,1,1,1,5,
5,1,1,1,1,10,3,3,3,3,3,3,3,3,11,1,1,1,1,1,1,2,2,2,2,2,2,2,2,2,2,2,2,2,2,2,2,2,2,2,2,2,2,2,2,2,2,2,2,2,2,2,2,2,2,2,2,2,2,2,2,2,2,2,2,2,2,2,2,2,2,2,2,2,2,2,2,2,2,2,2,2,2,2,2,2,2,2,2,2,2,2,2,2,2,2,2,2,2,2,2,5,1,1,1,1,1,36,37,57,3,3,3,3,3,3,3,3,3,3,3,137,1,1,1,1,1,7,
5,1,1,1,1,12,4,4,4,4,4,4,4,4,15,1,1,1,1,1,1,2,2,2,2,2,2,2,2,2,2,2,2,2,2,2,2,2,2,2,2,2,2,2,2,2,2,2,2,2,2,2,2,2,2,2,2,2,2,2,2,2,2,2,2,2,2,2,2,2,2,2,2,2,2,2,2,2,2,2,2,2,2,2,2,2,2,2,2,2,2,2,2,2,2,2,2,2,2,2,2,5,1,1,1,1,1,1,1,138,57,3,3,3,3,3,3,3,3,3,3,139,1,1,1,1,1,7,
5,1,1,1,1,12,4,4,4,4,4,4,4,4,15,1,1,1,1,1,1,2,2,2,2,2,2,2,2,2,2,2,2,2,2,2,2,2,2,2,2,2,2,2,2,2,2,2,2,2,2,2,2,2,2,2,2,2,2,2,2,2,2,2,2,2,2,2,2,2,2,2,2,2,2,2,2,2,2,2,2,2,2,2,2,2,2,2,2,2,2,2,2,2,2,2,2,2,2,2,2,5,1,1,1,1,1,1,1,1,58,59,3,3,3,3,3,3,3,3,3,11,1,1,1,1,1,7,
5,1,1,1,1,10,3,3,3,3,3,3,3,3,11,1,1,1,1,1,1,2,2,2,2,2,2,2,2,2,2,2,2,2,2,2,2,2,2,2,2,2,2,2,2,2,2,2,2,2,2,2,2,2,2,2,2,2,2,2,2,2,2,2,2,2,2,2,2,2,2,2,2,2,2,2,2,2,2,2,2,2,2,2,2,2,2,2,2,2,2,2,2,2,2,2,2,2,2,2,2,7,1,1,1,1,1,1,1,1,1,88,3,3,3,3,3,3,3,3,3,11,1,1,1,1,1,7,
2,1,1,1,1,10,3,3,3,3,3,3,3,3,11,1,1,1,1,1,1,6,2,2,2,2,2,2,2,2,2,2,2,2,2,2,2,2,2,2,2,2,2,2,2,2,2,2,2,2,2,2,2,2,2,2,2,2,2,2,2,2,2,2,2,2,2,2,2,2,2,2,2,2,2,2,2,2,2,2,2,2,2,2,2,2,2,2,2,2,2,2,2,2,2,2,2,2,2,2,2,7,1,1,1,1,1,1,1,1,1,140,10,3,3,3,3,3,3,3,3,11,1,1,1,1,1,6,
2,1,1,1,1,12,4,4,4,4,4,4,4,4,15,1,1,1,1,1,1,6,2,2,2,2,2,2,2,2,2,2,2,2,2,2,2,2,2,2,2,2,2,2,2,2,2,2,2,2,2,2,2,2,2,2,2,2,2,2,2,2,2,2,2,2,2,2,2,2,2,2,2,2,2,2,2,2,2,2,2,2,2,2,2,2,2,2,2,2,2,2,2,2,2,2,2,2,2,2,2,7,1,1,1,1,1,1,1,1,1,89,10,3,3,3,3,3,3,3,3,11,1,1,1,1,1,6,
2,1,1,1,1,12,4,4,4,4,4,4,4,4,15,1,1,1,1,1,1,6,2,2,2,2,2,2,2,2,2,2,2,2,2,2,2,2,2,2,2,2,2,2,2,2,2,2,2,2,2,2,2,2,2,2,2,2,2,2,2,2,2,2,2,2,2,2,2,2,2,2,2,2,2,2,2,2,2,2,2,2,2,2,2,2,2,2,2,2,2,2,2,2,2,2,2,2,2,2,2,7,1,1,1,1,1,1,1,1,1,89,10,3,3,3,3,3,3,3,3,11,1,1,1,1,1,6,
2,1,1,1,1,10,3,3,3,3,3,3,3,3,11,1,1,1,1,1,1,6,2,2,2,2,2,2,2,2,2,2,2,2,2,2,2,2,2,2,2,2,2,2,2,2,2,2,2,2,2,2,2,2,2,2,2,2,2,2,2,2,2,2,2,2,2,2,2,2,2,2,2,2,2,2,2,2,2,2,2,2,2,2,2,2,2,2,2,2,2,2,2,2,2,2,2,2,2,2,2,6,1,1,1,1,1,1,1,1,1,141,12,4,4,4,4,4,4,4,4,15,1,1,1,1,1,6,
6,1,1,1,1,10,3,3,3,3,3,3,3,3,11,1,1,1,1,1,1,7,2,2,2,2,2,2,2,2,2,2,2,9,9,9,6,8,8,8,8,5,5,5,46,2,2,2,2,9,9,9,6,8,8,8,8,5,5,5,46,2,2,2,2,9,9,9,6,8,8,8,8,5,5,5,46,2,2,2,2,9,9,9,6,8,8,8,8,5,5,5,5,2,2,2,2,2,2,2,2,6,1,1,1,1,1,1,1,1,1,1,12,4,4,4,4,4,4,4,4,15,1,1,1,1,1,2,
6,1,1,1,1,12,4,4,4,4,4,4,4,4,15,1,1,1,1,1,1,7,2,2,2,2,2,2,2,2,2,2,2,2,1,1,1,1,1,1,1,1,1,1,1,1,1,1,1,1,1,1,1,1,1,1,1,1,1,1,1,1,1,1,1,1,1,1,1,1,1,1,1,1,1,1,1,1,1,1,1,1,1,1,1,1,1,1,1,1,1,1,2,2,2,2,2,2,2,2,2,6,1,1,1,1,1,1,1,1,1,1,10,3,3,3,3,3,3,3,3,11,1,1,1,1,1,2,
6,1,1,1,1,12,4,4,4,4,4,4,4,4,15,1,1,1,1,1,1,7,2,2,2,2,2,2,2,2,2,2,2,2,1,1,1,1,1,1,1,1,1,1,1,1,1,1,1,1,1,1,1,1,1,1,1,1,1,1,1,1,1,1,1,1,1,1,1,1,1,1,1,1,1,1,1,1,1,1,1,1,1,1,1,1,1,1,1,1,1,1,2,2,2,2,2,2,2,2,2,6,1,1,1,1,1,1,1,1,1,1,10,3,3,3,3,3,3,3,3,11,1,1,1,1,1,2,
6,1,1,1,1,10,3,3,3,3,3,3,3,3,11,1,1,1,1,1,1,7,2,2,2,2,2,2,2,2,2,2,2,2,1,1,1,1,1,1,1,1,1,1,1,1,1,1,1,1,1,1,1,1,1,1,1,1,1,1,1,1,1,1,1,1,1,1,1,1,1,1,1,1,1,1,1,1,1,1,1,1,1,1,1,1,1,1,1,1,1,1,2,2,2,2,2,2,2,2,2,2,1,1,1,1,1,1,1,1,1,1,12,4,4,4,4,4,4,4,4,15,1,1,1,1,1,2,
7,1,1,1,1,10,3,3,3,3,3,3,3,3,11,1,1,1,1,1,1,5,2,2,2,2,2,2,2,2,2,2,2,2,1,1,1,1,1,1,1,1,1,1,1,1,1,1,1,1,1,1,1,1,1,1,1,1,1,1,1,1,1,1,1,1,1,1,1,1,1,1,1,1,1,1,1,1,1,1,1,1,1,1,1,1,1,1,1,1,1,1,2,2,2,2,2,2,2,2,2,2,1,1,1,1,1,1,1,1,1,1,12,4,4,4,4,4,4,4,4,15,1,1,1,1,1,5,
7,1,1,1,1,12,4,4,4,4,4,4,4,4,15,1,1,1,1,1,1,5,2,2,2,2,2,2,2,2,2,2,2,5,1,1,1,1,1,1,1,1,1,1,1,1,1,1,1,1,1,1,1,1,1,1,1,1,1,1,1,1,1,1,1,1,1,1,1,1,1,1,1,1,1,1,1,1,1,1,1,1,1,1,1,1,1,1,1,1,1,1,6,2,2,2,2,2,2,2,2,2,1,1,1,1,1,1,1,1,1,1,10,3,3,3,3,3,3,3,3,11,1,1,1,1,1,5,
7,1,1,1,1,12,4,4,4,4,4,4,4,4,15,1,1,1,1,1,1,5,2,2,2,2,2,2,2,2,2,2,2,5,1,1,1,1,1,1,1,1,1,1,1,1,1,1,1,1,1,1,1,1,1,1,1,73,74,75,76,26,26,26,77,78,79,80,1,1,1,1,1,1,1,1,1,1,1,1,1,1,1,1,1,1,1,1,1,1,1,1,6,2,2,2,2,2,2,2,2,2,1,1,1,1,1,1,1,1,1,1,10,3,3,3,3,3,3,3,3,11,1,1,1,1,1,5,
7,1,1,1,1,10,3,3,3,3,3,3,3,3,11,1,1,1,1,1,1,5,2,2,2,2,2,2,2,2,2,2,2,5,1,1,1,1,1,1,1,1,1,1,1,1,1,1,1,1,1,1,1,1,1,19,18,3,3,3,3,3,3,3,3,3,3,3,13,14,1,1,1,1,1,1,1,1,1,1,1,1,1,1,1,1,1,1,1,1,1,1,6,2,2,2,2,2,2,2,2,5,1,1,1,1,1,1,1,1,1,1,142,29,29,29,29,29,29,29,29,143,1,1,1,1,1,5,
5,1,1,1,1,10,3,3,3,3,3,3,3,3,11,1,1,6,2,2,2,2,2,2,2,2,2,2,2,2,2,2,2,5,1,1,1,1,1,1,1,1,1,1,1,1,1,1,1,1,1,1,1,19,18,3,3,3,3,3,3,3,3,3,3,3,3,3,3,3,33,1,1,1,1,1,1,1,1,1,1,1,1,1,1,1,1,1,1,1,1,1,6,2,2,2,2,2,2,2,2,5,1,1,1,1,1,1,1,1,1,1,28,28,28,28,28,28,28,28,28,28,1,1,1,1,1,7,
5,1,1,1,1,12,4,4,4,4,4,4,4,4,15,1,1,6,2,2,2,2,2,2,2,2,2,2,2,2,2,2,2,7,1,1,1,1,1,1,1,1,1,1,1,1,1,1,1,1,1,19,18,3,3,3,3,3,3,3,3,3,3,3,3,3,3,3,3,3,3,33,1,1,1,1,1,1,1,1,1,1,1,1,1,1,1,1,1,1,1,1,7,2,2,2,2,2,2,2,2,5,1,1,1,1,1,1,1,1,1,1,144,30,30,30,30,30,30,30,30,145,1,1,1,1,1,7,
5,1,1,1,1,12,4,4,4,4,4,4,4,4,15,1,1,6,2,2,2,2,2,2,2,2,2,2,2,2,2,2,2,7,1,1,1,1,1,1,1,1,1,1,1,1,1,1,1,19,18,3,3,3,3,3,3,3,3,3,3,3,3,3,3,3,3,3,3,3,3,3,33,1,1,1,1,1,1,1,1,1,1,1,1,1,1,1,1,1,1,1,7,2,2,2,2,2,2,2,2,5,1,1,1,1,1,1,1,1,1,1,10,3,3,3,3,3,3,3,3,11,1,1,1,1,1,7,
5,1,1,1,1,10,3,3,3,3,3,3,3,3,11,1,1,6,2,2,2,2,2,2,2,2,2,2,2,2,2,2,2,7,1,1,1,1,1,1,1,1,1,1,1,1,1,19,18,3,3,3,3,3,3,3,3,3,3,3,3,3,3,3,3,3,3,3,3,3,3,3,3,33,1,1,1,1,1,1,1,1,1,1,1,1,1,1,1,1,1,1,7,2,2,2,2,2,2,2,2,7,1,1,1,1,1,1,1,1,1,1,12,47,31,31,48,4,4,4,4,15,1,1,1,1,1,7,
2,1,1,1,1,10,3,3,3,3,3,3,3,3,11,1,1,7,2,2,2,5,5,5,46,2,2,2,2,9,9,9,6,7,1,1,1,1,1,1,1,1,1,1,1,19,18,3,3,3,3,3,3,3,3,3,3,3,3,3,3,3,3,3,3,3,3,3,3,3,3,3,3,3,22,1,1,1,1,1,1,1,1,1,1,1,1,1,1,1,1,1,7,2,2,2,2,2,2,2,2,7,1,1,1,1,1,1,1,1,1,1,12,4,4,4,4,4,4,4,4,15,1,1,1,1,1,6,
2,1,1,1,1,12,4,4,4,4,4,4,4,4,15,1,1,7,2,2,2,5,1,1,1,1,1,1,1,1,1,1,1,1,1,1,1,1,1,1,1,1,1,19,18,3,3,3,3,3,3,3,3,3,3,3,3,3,3,3,3,3,3,3,3,3,3,3,3,3,3,3,3,3,23,1,1,1,1,1,1,1,1,1,1,1,1,1,1,1,1,1,5,2,2,2,2,2,2,2,2,7,1,1,1,1,1,1,1,1,1,1,10,3,3,3,3,3,3,3,3,11,1,1,1,1,1,6,
2,1,1,1,1,12,4,4,4,4,4,4,4,4,15,1,1,7,2,2,2,7,1,1,1,1,1,1,1,1,1,1,1,1,1,1,1,1,1,1,1,19,18,3,3,3,3,3,3,3,3,3,3,3,3,3,3,3,3,3,3,3,3,3,3,3,3,3,3,3,3,3,3,3,3,22,1,1,1,1,1,1,1,1,1,1,1,1,1,1,1,1,5,2,2,2,2,2,2,2,2,7,1,1,1,1,1,1,1,1,1,1,10,3,3,3,3,49,32,32,50,11,1,1,1,1,1,6,
2,1,1,1,1,10,3,3,3,3,3,3,3,3,11,1,1,7,2,2,2,7,1,1,1,1,1,1,1,1,1,1,1,1,1,1,1,1,1,19,18,3,3,3,3,3,3,3,3,3,3,3,3,3,3,3,3,3,3,3,3,3,3,3,3,3,3,3,3,3,3,3,3,3,3,23,1,1,1,1,1,1,1,1,1,1,1,1,1,1,1,1,5,2,2,2,2,2,2,2,2,6,1,1,1,1,1,1,1,1,1,1,12,4,4,4,4,4,4,4,4,15,1,1,1,1,1,6,
6,1,1,1,1,10,3,3,3,3,3,3,3,3,11,1,1,5,2,2,2,7,1,1,1,1,1,1,1,1,1,1,1,1,1,1,1,19,18,3,3,3,3,3,3,3,3,3,3,3,3,3,3,3,3,3,3,3,3,3,81,54,82,3,3,3,3,3,3,3,3,3,3,3,3,3,22,1,1,1,1,1,1,1,1,1,1,1,1,1,1,1,5,2,2,2,2,2,2,2,2,6,1,1,1,1,1,1,1,1,1,1,12,4,4,4,4,4,4,4,4,15,1,1,1,1,1,2,
6,1,1,1,1,12,4,4,4,4,4,4,4,4,90,40,1,5,2,2,2,7,1,1,1,1,1,1,1,1,1,1,1,1,1,19,18,3,3,3,3,3,3,3,3,3,3,3,3,3,3,3,3,3,3,3,3,3,42,43,34,34,146,55,35,3,3,3,3,3,3,3,3,3,3,3,23,1,1,1,1,1,1,1,1,1,1,1,1,1,1,1,2,2,2,2,2,2,2,2,2,6,1,1,1,1,1,1,1,1,1,1,10,49,32,32,50,3,3,3,3,11,1,1,1,1,1,2,
6,1,1,1,1,12,4,4,4,4,4,4,4,4,90,40,1,5,2,2,2,6,1,1,1,1,1,1,1,1,1,1,1,19,18,3,3,3,3,3,3,3,3,3,3,3,3,3,3,3,3,3,3,3,3,3,42,43,44,45,1,1,1,36,37,57,3,3,3,3,3,3,3,3,3,3,3,22,1,1,1,1,1,1,1,1,1,1,1,1,1,1,2,2,2,2,2,2,2,2,2,6,1,1,1,1,1,1,1,1,1,1,10,3,3,3,3,3,3,3,3,11,1,1,1,1,1,2,
6,1,1,1,1,10,3,3,3,3,3,3,3,3,87,40,1,5,2,2,2,6,1,1,1,1,1,1,1,1,1,19,18,3,3,3,3,3,3,3,3,3,3,3,3,3,3,3,3,3,3,3,3,3,42,43,44,45,1,1,1,1,1,1,1,58,59,3,3,3,3,3,3,3,3,3,3,23,1,1,1,1,1,1,1,1,1,1,1,1,1,1,2,2,2,2,2,2,2,2,2,2,1,1,1,1,1,1,1,1,1,1,12,4,4,4,4,4,4,4,4,15,1,1,1,1,1,2,
7,1,1,1,1,10,3,3,3,3,3,3,3,3,147,40,1,2,2,2,2,6,1,1,1,1,1,1,1,19,18,3,3,3,3,3,3,3,3,3,3,3,3,3,3,3,3,3,3,3,3,3,20,21,44,45,1,1,1,1,1,1,1,1,1,1,88,3,3,3,3,3,3,3,3,3,3,3,22,1,1,1,1,1,1,1,1,1,1,1,1,1,2,2,2,2,2,2,2,2,2,2,1,1,1,1,1,1,1,1,1,1,12,4,4,4,4,47,31,31,48,15,1,1,1,1,1,5,
7,1,1,1,1,10,3,3,3,3,3,3,3,3,3,60,1,2,2,2,2,6,1,1,1,1,1,19,18,3,3,3,3,3,3,3,3,3,3,3,3,3,3,3,3,3,3,3,3,3,20,21,1,1,1,1,1,1,1,1,1,1,1,1,1,1,58,59,3,3,3,3,3,3,3,3,3,3,23,1,1,1,1,1,1,1,1,1,1,1,1,1,6,2,2,2,2,2,2,2,2,2,1,1,1,1,1,1,1,1,1,1,10,3,3,3,3,3,3,3,3,11,1,1,1,1,1,5,
7,1,1,1,1,10,3,3,3,3,3,3,3,3,3,91,148,1,1,1,1,1,1,92,93,149,18,3,3,3,3,3,3,3,3,3,3,3,3,3,3,3,3,3,3,3,3,3,20,21,1,1,1,1,1,1,1,1,1,1,1,1,1,1,1,1,1,150,3,3,3,3,3,3,3,3,3,3,3,22,1,1,1,1,1,1,1,1,1,1,1,1,6,2,2,2,2,2,2,2,2,2,1,1,1,1,1,1,1,1,1,1,10,3,3,3,3,3,3,3,3,11,1,1,1,1,1,5,
7,1,1,1,1,10,3,3,3,3,3,3,3,3,3,3,151,61,62,1,94,95,96,97,98,3,3,3,3,3,3,3,3,3,3,3,3,3,3,3,3,3,3,3,3,3,20,21,1,1,1,1,1,1,1,1,1,1,1,1,1,1,1,1,1,1,1,1,24,3,3,3,3,3,3,3,3,3,3,23,1,1,1,1,1,1,1,1,1,1,1,1,6,2,2,2,2,2,2,2,2,5,1,1,1,1,1,1,1,1,1,1,12,47,31,31,48,4,4,4,4,15,1,1,1,1,1,5,
5,1,1,1,1,10,3,3,3,3,3,3,3,3,3,3,3,63,64,99,100,101,102,3,3,3,3,3,3,3,3,3,3,3,3,3,3,3,3,3,3,3,3,3,20,21,1,1,1,1,1,1,1,1,1,1,1,1,1,1,1,1,1,1,1,1,1,1,25,3,3,3,3,3,3,3,3,3,3,3,22,1,1,1,1,1,1,1,1,1,1,1,6,2,2,2,2,2,2,2,2,5,1,1,1,1,1,1,1,1,1,1,12,4,4,4,4,4,4,4,4,15,1,1,1,1,1,7,
5,1,1,1,1,10,3,3,3,3,3,3,3,3,3,3,3,3,3,3,3,3,3,3,3,3,3,3,3,3,3,3,3,3,3,3,3,3,3,3,3,3,20,21,1,1,1,1,1,1,1,1,1,1,1,1,1,1,1,1,1,1,1,1,1,1,1,1,1,24,3,3,3,3,3,3,3,3,3,3,23,1,1,1,1,1,1,1,1,1,1,1,7,2,2,2,2,2,2,2,2,5,1,1,1,1,1,1,1,1,1,1,10,3,3,3,3,3,3,3,3,11,1,1,1,1,1,7,
5,1,1,1,1,10,3,3,3,3,3,3,3,3,3,3,3,3,3,3,3,3,3,3,3,3,3,3,3,3,3,3,3,3,3,3,3,3,3,3,20,21,1,1,1,1,1,1,1,1,1,1,1,1,1,1,1,1,1,1,1,1,1,1,1,1,1,1,1,25,3,3,3,3,3,3,3,3,3,3,3,22,1,1,1,1,1,1,1,1,1,1,7,2,2,2,2,2,2,2,2,5,1,1,1,1,1,1,1,1,1,1,10,3,3,3,3,49,32,32,50,11,1,1,1,1,1,7,
5,1,1,1,1,10,3,3,3,3,3,3,3,3,3,3,3,3,3,3,3,3,3,3,3,3,3,3,3,3,3,3,3,3,3,3,3,3,20,21,1,1,1,1,1,1,1,1,1,1,1,1,1,1,1,1,1,1,1,1,1,1,1,1,1,1,1,1,1,1,24,3,3,3,3,3,3,3,3,3,3,23,1,1,1,1,1,1,1,1,1,1,7,2,2,2,2,2,2,2,2,7,1,1,1,1,1,1,1,1,1,1,12,4,4,4,4,4,4,4,4,15,1,1,1,1,1,7,
2,1,1,1,1,152,3,3,3,3,3,3,3,3,3,3,3,3,3,3,3,3,3,3,3,3,3,3,3,3,3,3,3,3,3,3,20,21,1,1,1,1,1,1,1,1,1,1,1,1,1,1,1,1,1,1,1,1,1,1,1,1,1,1,1,1,1,1,1,1,25,3,3,3,3,3,3,3,3,3,3,3,22,1,1,1,1,1,1,1,1,1,7,2,2,2,2,2,2,2,2,7,1,1,1,1,1,1,1,1,1,1,12,4,4,4,4,4,4,4,4,15,1,1,1,1,1,6,
2,1,1,1,1,153,3,3,3,3,3,3,3,3,3,3,3,3,3,3,3,3,3,3,3,3,3,3,3,3,3,3,3,3,20,21,1,1,1,1,1,1,1,1,1,1,1,1,1,1,1,1,1,1,1,1,1,1,1,1,1,1,1,1,1,1,1,1,1,1,1,24,3,3,3,3,3,3,3,3,3,3,23,1,1,1,1,1,1,1,1,1,5,2,2,2,2,2,2,2,2,7,1,1,1,1,1,1,1,1,1,1,10,49,32,32,50,3,3,3,3,11,1,1,1,1,1,6,
2,1,1,1,1,154,3,3,3,3,3,3,3,3,3,3,3,3,3,3,3,3,3,3,3,3,3,3,3,3,3,3,20,21,1,1,1,1,1,1,1,1,1,1,1,1,1,1,1,1,1,1,1,1,1,1,1,1,1,1,1,1,1,1,1,1,1,1,1,1,1,25,3,3,3,3,3,3,3,3,3,3,3,22,1,1,1,1,1,1,1,1,5,2,2,2,2,2,2,2,2,7,1,1,1,1,1,1,1,1,1,1,10,3,3,3,3,3,3,3,3,11,1,1,1,1,1,6,
2,1,1,1,1,155,3,3,3,3,3,3,3,3,3,3,3,3,3,3,3,3,3,3,3,3,3,3,3,3,20,21,1,1,1,1,1,1,1,1,1,1,1,1,1,1,1,1,1,1,1,1,1,1,1,1,1,1,1,1,1,1,1,1,1,1,1,1,1,1,1,1,24,3,3,3,3,3,3,3,3,3,3,23,1,1,1,1,1,1,1,1,5,2,2,2,2,2,2,2,2,6,1,1,1,1,1,1,1,1,1,1,12,4,4,4,4,4,4,4,4,15,1,1,1,1,1,6,
6,1,1,1,1,1,24,3,3,3,3,3,3,3,3,3,3,3,3,3,3,3,3,3,3,3,3,3,20,21,1,1,1,1,1,1,1,1,1,1,1,1,1,1,1,1,1,1,1,1,1,1,1,1,1,1,1,1,1,1,1,1,1,1,1,1,1,1,1,1,1,1,25,3,3,3,3,3,3,3,3,3,3,3,22,1,1,1,1,1,1,1,5,2,2,2,2,2,2,2,2,6,1,1,1,1,1,1,1,1,1,1,12,4,4,4,4,47,31,31,48,15,1,1,1,1,1,2,
6,1,1,1,1,1,25,3,3,3,3,3,3,3,3,3,3,3,3,3,3,3,3,3,3,3,20,21,1,1,1,1,1,1,1,1,1,1,1,1,1,1,1,1,1,1,1,1,1,1,1,1,1,1,1,1,1,1,1,1,1,1,1,1,1,1,1,1,1,1,1,1,1,24,3,3,3,3,3,3,3,3,3,3,23,1,1,1,1,1,1,1,2,2,2,2,2,2,2,2,2,6,1,1,1,1,1,1,1,1,1,1,10,3,3,3,3,3,3,3,3,11,1,1,1,1,1,2,
6,1,1,1,1,1,1,38,3,3,3,3,3,3,3,3,3,3,3,3,3,3,3,3,20,21,1,1,1,1,1,1,1,1,1,1,1,1,1,1,1,1,1,1,1,1,1,1,1,1,1,1,1,1,1,1,1,1,1,1,1,1,1,1,1,1,1,1,1,1,1,1,1,25,3,3,3,3,3,3,3,3,3,3,3,22,1,1,1,1,1,1,2,2,2,2,2,2,2,2,2,6,1,1,1,1,1,1,1,1,1,1,10,3,3,3,3,3,3,3,3,11,1,1,1,1,1,2,
6,1,1,1,1,1,1,1,17,16,3,3,3,3,3,3,3,3,3,3,3,3,20,21,1,1,1,1,1,1,1,1,1,1,1,1,1,1,1,1,1,1,1,1,1,1,1,1,1,1,1,1,1,1,1,1,1,1,1,1,1,1,1,1,1,1,1,1,1,1,1,1,1,1,24,3,3,3,3,3,3,3,3,3,3,23,1,1,1,1,1,1,2,2,2,2,2,2,2,2,2,6,1,1,1,1,1,1,1,1,1,1,12,4,4,4,4,4,4,4,4,15,1,1,1,1,1,2,
7,1,1,1,1,1,1,1,1,1,65,66,67,68,27,27,27,27,69,70,71,72,1,1,1,1,1,1,1,1,1,1,1,1,1,1,1,1,1,1,1,1,1,1,1,1,1,1,1,1,1,1,1,1,1,1,1,1,1,1,1,1,1,1,1,1,1,1,1,1,1,1,1,1,25,3,3,3,3,3,3,3,3,3,3,3,22,1,1,1,1,1,2,2,2,2,2,2,2,2,2,2,1,1,1,1,1,1,1,1,1,1,12,4,4,4,4,4,4,4,4,15,1,1,1,1,1,5,
7,1,1,1,1,1,1,1,1,1,1,1,1,1,1,1,1,1,1,1,1,1,1,1,1,1,1,1,1,1,1,1,1,1,1,1,1,1,1,1,1,1,1,1,1,1,1,1,1,1,1,1,1,1,1,1,1,1,1,1,1,1,1,1,1,1,1,1,1,1,1,1,1,1,1,24,3,3,3,3,3,3,3,3,3,3,23,1,1,1,1,1,6,2,2,2,2,2,2,2,2,2,1,1,1,1,1,1,1,1,1,156,10,3,3,3,3,3,3,3,3,11,1,1,1,1,1,5,
7,1,1,1,1,1,1,1,1,1,1,1,1,1,1,1,1,1,1,1,1,1,1,1,1,1,1,1,1,1,1,1,1,1,1,1,1,1,1,1,1,1,1,1,1,1,1,1,1,1,1,1,1,1,1,1,1,1,1,1,1,1,1,1,1,1,1,1,1,1,1,1,1,1,1,25,3,3,3,3,3,3,3,3,3,3,3,22,1,1,1,1,6,2,2,2,2,2,2,2,2,2,1,1,1,1,1,1,1,1,1,157,10,3,3,3,3,3,3,3,3,11,1,1,1,1,1,5,
7,1,1,1,1,1,1,1,1,1,1,1,1,1,1,1,1,1,1,1,1,1,1,1,1,1,1,1,1,1,1,1,1,1,1,1,1,1,1,1,1,1,1,1,1,1,1,1,1,1,1,1,1,1,1,1,1,1,1,1,1,1,1,1,1,1,1,1,1,1,1,1,1,1,1,1,24,3,3,3,3,3,3,3,3,3,3,23,1,1,1,1,6,2,2,2,2,2,2,2,2,2,1,1,1,1,1,1,1,1,1,158,3,3,3,3,3,3,3,3,3,11,1,1,1,1,1,5,
5,1,1,1,1,1,1,1,1,1,1,1,1,1,1,1,1,1,1,1,1,1,1,1,1,1,1,1,1,1,1,1,1,1,1,1,1,1,1,1,1,1,1,1,1,1,1,1,1,1,1,1,1,1,1,1,1,1,1,1,1,1,1,1,1,1,1,1,1,1,1,1,1,1,1,1,25,3,3,3,3,3,3,3,3,3,3,3,60,1,1,1,6,8,8,8,8,5,5,5,5,5,1,1,1,1,1,1,1,1,159,160,3,3,3,3,3,3,3,3,3,11,1,1,1,1,1,7,
5,1,1,1,1,1,1,1,1,1,1,1,1,1,1,1,1,1,1,1,1,1,1,1,1,1,1,1,1,1,1,1,1,1,1,1,1,1,1,1,1,1,1,1,1,1,1,1,1,1,1,1,1,1,1,1,1,1,1,1,1,1,1,1,1,1,1,1,1,1,1,1,1,1,1,1,1,24,3,3,3,3,3,3,3,3,3,3,161,103,1,1,1,1,1,1,1,1,1,1,1,1,1,1,1,1,1,1,1,1,162,163,3,3,3,3,3,3,3,3,3,11,1,1,1,1,1,7,
5,1,1,1,1,1,1,1,1,1,1,1,1,1,1,1,1,1,1,1,1,1,1,1,1,1,1,1,1,1,1,1,1,1,1,1,1,1,1,1,1,1,1,1,1,1,1,1,1,1,1,1,1,1,1,1,1,1,1,1,1,1,1,1,1,1,1,1,1,1,1,1,1,1,1,1,1,25,3,3,3,3,3,3,3,3,3,3,3,60,1,1,1,1,1,1,1,1,1,1,1,1,1,1,1,1,1,1,1,1,164,165,3,3,3,3,3,3,3,3,3,11,1,1,1,1,1,7,
5,1,1,1,1,1,1,1,1,1,1,1,1,1,1,1,1,1,1,1,1,1,1,1,1,1,1,1,1,1,1,1,1,1,1,1,1,1,1,1,1,1,1,1,1,1,1,1,1,1,1,1,1,1,1,1,1,1,1,1,1,1,1,1,1,1,1,1,1,1,1,1,1,1,1,1,1,1,24,3,3,3,3,3,3,3,3,3,3,91,103,1,1,1,1,1,1,1,1,1,1,1,1,1,1,1,1,1,1,1,166,3,3,3,3,3,3,3,3,3,3,11,1,1,1,1,1,7,
2,1,1,1,1,1,1,1,1,1,1,1,1,1,1,1,1,1,1,1,1,1,1,1,1,1,1,1,1,1,1,1,1,1,1,1,1,1,1,1,1,1,1,1,1,1,1,1,1,1,1,1,1,1,1,1,1,1,1,1,1,1,1,1,1,1,1,1,1,1,1,1,1,1,1,1,1,1,25,3,3,3,3,3,3,3,3,3,3,3,167,61,62,1,1,1,1,1,1,1,1,1,1,1,1,1,1,1,1,168,169,3,3,3,3,3,3,3,3,3,3,11,1,1,1,1,1,6,
2,1,1,1,1,1,1,1,1,1,1,1,1,1,1,1,1,1,1,1,1,1,1,1,1,1,1,1,1,1,1,1,1,1,1,1,1,1,1,1,1,1,1,1,1,1,1,1,1,1,1,1,1,1,1,1,1,1,1,1,1,1,1,1,1,1,1,1,1,1,1,1,1,1,1,1,1,1,1,24,3,3,3,3,3,3,3,3,3,3,3,63,64,61,62,1,1,1,1,1,1,1,1,1,1,1,1,92,93,170,3,3,3,3,3,3,3,3,3,3,3,171,1,1,1,1,1,6,
2,1,1,1,1,1,1,1,1,1,1,1,1,1,1,1,1,1,1,1,1,1,1,1,1,1,1,1,1,1,1,1,1,1,1,1,1,1,1,1,1,1,1,1,1,1,1,1,1,1,1,1,1,1,1,1,1,1,1,1,1,1,1,1,1,1,1,1,1,1,1,1,1,1,1,1,1,1,1,25,3,3,3,3,3,3,3,3,3,3,3,3,3,63,64,172,173,174,1,1,1,1,1,1,94,95,96,97,98,3,3,3,3,3,3,3,3,3,3,3,3,175,1,1,1,1,1,6,
2,1,1,1,1,1,1,1,1,1,1,1,1,1,1,1,1,1,1,1,1,1,1,1,1,1,1,1,1,1,1,1,1,1,1,1,1,1,1,1,1,1,1,1,1,1,1,1,1,1,1,1,1,1,1,1,1,1,1,1,1,1,1,1,1,1,1,1,1,1,1,1,1,1,1,1,1,1,1,1,24,3,3,3,3,3,3,3,3,3,3,3,3,3,3,176,177,178,179,51,51,51,51,99,100,101,102,3,3,3,3,3,3,3,3,3,3,3,3,3,3,180,1,1,1,1,1,6,
9,9,9,6,8,8,8,8,5,5,5,5,2,2,2,2,9,9,9,6,8,8,8,8,5,5,5,5,2,2,2,2,9,9,9,6,8,8,8,8,5,5,5,5,2,2,2,2,9,9,9,6,8,8,8,8,5,5,5,5,1,1,1,1,1,1,1,1,1,1,1,1,1,1,1,1,1,1,1,1,25,3,3,3,3,3,3,3,3,3,3,3,3,3,3,3,3,3,3,26,26,26,26,3,3,3,3,3,3,3,3,3,3,3,3,3,3,3,3,3,3,181,1,1,1,1,1,2,
2,2,2,2,2,2,2,2,2,2,2,2,2,2,2,2,2,2,2,2,2,2,2,2,2,2,2,2,2,2,2,2,2,2,2,2,2,2,2,2,2,2,2,2,2,2,2,2,2,2,2,2,2,2,2,2,2,2,2,2,1,1,1,1,1,1,1,1,1,1,1,1,1,1,1,1,1,1,1,1,1,24,3,3,3,3,3,3,3,3,3,3,3,3,3,3,3,3,3,3,3,3,3,3,3,3,3,3,3,3,3,3,3,3,3,3,3,3,3,3,182,1,1,1,1,1,1,2,
2,2,2,2,2,2,2,2,2,2,2,2,2,2,2,2,2,2,2,2,2,2,2,2,2,2,2,2,2,2,2,2,2,2,2,2,2,2,2,2,2,2,2,2,2,2,2,2,2,2,2,2,2,2,2,2,2,2,2,2,1,1,1,1,1,1,1,1,1,1,1,1,1,1,1,1,1,1,1,1,1,25,3,3,3,3,3,3,3,3,3,3,3,3,3,3,3,3,3,3,3,3,3,3,3,3,3,3,3,3,3,3,3,3,3,3,3,3,3,3,183,1,1,1,1,1,1,2,
2,2,2,2,2,2,2,2,2,2,2,2,2,2,2,2,2,2,2,2,2,2,2,2,2,2,2,2,2,2,2,2,2,2,2,2,2,2,2,2,2,2,2,2,2,2,2,2,2,2,2,2,2,2,2,2,2,2,2,2,1,1,1,1,1,1,1,1,1,1,1,1,1,1,1,1,1,1,1,1,1,1,38,3,3,3,3,3,3,3,3,3,3,3,3,3,3,3,3,3,3,3,3,3,3,3,3,3,3,3,3,3,3,3,3,3,3,3,3,41,1,1,1,1,1,1,1,2,
2,2,2,2,2,2,2,2,2,2,2,2,2,2,2,2,2,2,2,2,2,2,2,2,2,2,2,2,2,2,2,2,2,2,2,2,2,2,2,2,2,2,2,2,2,2,2,2,2,2,2,2,2,2,2,2,2,2,2,2,1,1,1,1,1,1,1,1,1,1,1,1,1,1,1,1,1,1,1,1,1,1,1,38,3,3,3,3,3,3,3,3,3,3,3,3,3,3,3,3,3,3,3,3,3,3,3,3,3,3,3,3,3,3,3,3,3,3,41,1,1,1,1,1,1,1,1,5,
2,2,2,2,2,2,2,2,2,2,2,2,2,2,2,2,2,2,2,2,2,2,2,2,2,2,2,2,2,2,2,2,2,2,2,2,2,2,2,2,2,2,2,2,2,2,2,2,2,2,2,2,2,2,2,2,2,2,2,9,1,1,1,1,1,1,1,1,1,1,1,1,1,1,1,1,1,1,1,1,1,1,1,1,38,3,3,3,3,3,3,3,3,3,3,3,3,3,3,3,3,3,3,3,3,3,3,3,3,3,3,3,3,3,3,3,3,41,1,1,1,1,1,1,1,1,1,5,
2,2,2,2,2,2,2,2,2,2,2,2,2,2,2,2,2,2,2,2,2,2,2,2,2,2,2,2,2,2,2,2,2,2,2,2,2,2,2,2,2,2,2,2,2,2,2,2,2,2,2,2,2,2,2,2,2,2,2,9,1,1,1,1,1,1,1,1,1,1,1,1,1,1,1,1,1,1,1,1,1,1,1,1,1,38,3,3,3,3,3,3,3,3,3,3,3,3,3,3,3,3,3,3,3,3,3,3,3,3,3,3,3,3,3,3,41,1,1,1,1,1,1,1,1,1,1,5,
2,2,2,2,2,2,2,2,2,2,2,2,2,2,2,2,2,2,2,2,2,2,2,2,2,2,2,2,2,2,2,2,2,2,2,2,2,2,2,2,2,2,2,2,2,2,2,2,2,2,2,2,2,2,2,2,2,2,2,9,1,1,1,1,1,1,1,1,1,1,1,1,1,1,1,1,1,1,1,1,1,1,1,1,1,1,38,3,3,3,3,3,3,3,3,3,3,3,3,3,3,3,3,3,3,3,3,3,3,3,3,3,3,3,3,41,1,1,1,1,1,1,1,1,1,1,1,5,
2,2,2,2,2,2,2,2,2,2,2,2,2,2,2,2,2,2,2,2,2,2,2,2,2,2,2,2,2,2,2,2,2,2,2,2,2,2,2,2,2,2,2,2,2,2,2,2,2,2,2,2,2,2,2,2,2,2,2,9,1,1,1,1,1,1,1,1,1,1,1,1,1,1,1,1,1,1,1,1,1,1,1,1,1,1,1,17,16,3,3,3,3,3,3,3,3,3,3,3,3,3,3,3,3,3,3,3,3,3,3,3,3,20,21,1,1,1,1,1,1,1,1,1,1,1,1,7,
2,2,2,2,2,2,2,2,2,2,2,2,2,2,2,2,2,2,2,2,2,2,2,2,2,2,2,2,2,2,2,2,2,2,2,2,2,2,2,2,2,2,2,2,2,2,2,2,2,2,2,2,2,2,2,2,2,2,2,7,1,1,1,1,1,1,1,1,1,1,1,1,1,1,1,1,1,1,1,1,1,1,1,1,1,1,1,1,1,65,66,67,68,3,3,3,3,3,3,3,3,3,3,3,3,3,3,3,3,69,70,71,72,1,1,1,1,1,1,1,1,1,1,1,1,1,1,7,
2,2,2,2,2,2,2,2,2,2,2,2,2,2,2,2,2,2,2,2,2,2,2,2,2,2,2,2,2,2,2,2,2,2,2,2,2,2,2,2,2,2,2,2,2,2,2,2,2,2,2,2,2,2,2,2,2,2,2,7,1,1,1,1,1,1,1,1,1,1,1,1,1,1,1,1,1,1,1,1,1,1,1,1,1,1,1,1,1,1,1,1,1,65,66,67,68,27,27,27,27,27,27,27,27,69,70,71,72,1,1,1,1,1,1,1,1,1,1,1,1,1,1,1,1,1,1,7,
2,2,2,2,2,2,2,2,2,2,2,2,2,2,2,2,2,2,2,2,2,2,2,2,2,2,2,2,2,2,2,2,2,2,2,2,2,2,2,2,2,2,2,2,2,2,2,2,2,2,2,2,2,2,2,2,2,2,2,7,1,1,1,1,1,1,1,1,1,1,1,1,1,1,1,1,1,1,1,1,1,1,1,1,1,1,1,1,1,1,1,1,1,1,1,1,1,1,1,1,1,1,1,1,1,1,1,1,1,1,1,1,1,1,1,1,1,1,1,1,1,1,1,1,1,1,1,7,
2,2,2,2,2,2,2,2,2,2,2,2,2,2,2,2,2,2,2,2,2,2,2,2,2,2,2,2,2,2,2,2,2,2,2,2,2,2,2,2,2,2,2,2,2,2,2,2,2,2,2,2,2,2,2,2,2,2,2,7,1,1,1,1,1,1,1,1,1,1,1,1,1,1,1,1,1,1,1,1,1,1,1,1,1,1,1,1,1,1,1,1,1,1,1,1,1,1,1,1,1,1,1,1,1,1,1,1,1,1,1,1,1,1,1,1,1,1,1,1,1,1,1,1,1,1,1,6,
2,2,2,2,2,2,2,2,2,2,2,2,2,2,2,2,2,2,2,2,2,2,2,2,2,2,2,2,2,2,2,2,2,2,2,2,2,2,2,2,2,2,2,2,2,2,2,2,2,2,2,2,2,2,2,2,2,2,2,5,1,1,1,1,1,1,1,1,1,1,1,1,1,1,1,1,1,1,1,1,1,1,1,1,1,1,1,1,1,1,1,1,1,1,1,1,1,1,1,1,1,1,1,1,1,1,1,1,1,1,1,1,1,1,1,1,1,1,1,1,1,1,1,1,1,1,1,6,
2,2,2,2,2,2,2,2,2,2,2,2,2,2,2,2,2,2,2,2,2,2,2,2,2,2,2,2,2,2,2,2,2,2,2,2,2,2,2,2,2,2,2,2,2,2,2,2,2,2,2,2,2,2,2,2,2,2,2,5,1,1,1,1,1,1,1,1,1,1,1,1,1,1,1,1,1,1,1,1,1,1,1,1,1,1,1,1,1,1,1,1,1,1,1,1,1,1,1,1,1,1,1,1,1,1,1,1,1,1,1,1,1,1,1,1,1,1,1,1,1,1,1,1,1,1,1,6,
2,2,2,2,2,2,2,2,2,2,2,2,2,2,2,2,2,2,2,2,2,2,2,2,2,2,2,2,2,2,2,2,2,2,2,2,2,2,2,2,2,2,2,2,2,2,2,2,2,2,2,2,2,2,2,2,2,2,2,5,1,1,1,1,1,1,1,1,1,1,1,1,1,1,1,1,1,1,1,1,1,1,1,1,1,1,1,1,1,1,1,1,1,1,1,1,1,1,1,1,1,1,1,1,1,1,1,1,1,1,1,1,1,1,1,1,1,1,1,1,1,1,1,1,1,1,1,6,
2,2,2,2,2,2,2,2,2,2,2,2,2,2,2,2,2,2,2,2,2,2,2,2,2,2,2,2,2,2,2,2,2,2,2,2,2,2,2,2,2,2,2,2,2,2,2,2,2,2,2,2,2,2,2,2,2,2,2,5,1,1,1,1,1,1,1,1,1,1,1,1,1,1,1,1,1,1,1,1,1,1,1,1,1,1,1,1,1,1,1,1,1,1,1,1,1,1,1,1,1,1,1,1,1,1,1,1,1,1,1,1,1,1,1,1,1,1,1,1,1,1,1,1,1,1,1,2,
2,2,2,2,2,2,2,2,2,2,2,2,2,2,2,2,2,2,2,2,2,2,2,2,2,2,2,2,2,2,2,2,2,2,2,2,2,2,2,2,2,2,2,2,2,2,2,2,2,2,2,2,2,2,2,2,2,2,2,5,1,1,1,1,1,1,1,1,1,1,1,1,1,1,1,1,1,1,1,1,1,1,1,1,1,1,1,1,1,1,1,1,1,1,1,1,1,1,1,1,1,1,1,1,1,1,1,1,1,1,1,1,1,1,1,1,1,1,1,1,1,1,1,1,1,1,1,2,
2,2,2,2,2,2,2,2,2,2,2,2,2,2,2,2,2,2,2,2,2,2,2,2,2,2,2,2,2,2,2,2,2,2,2,2,2,2,2,2,2,2,2,2,2,2,2,2,2,2,2,2,2,2,2,2,2,2,2,2,2,2,2,2,9,9,9,6,8,8,8,8,5,5,5,5,2,2,2,2,9,9,9,6,8,8,8,8,5,5,5,5,2,2,2,2,9,9,9,6,8,8,8,8,5,5,5,5,2,2,2,2,9,9,9,6,8,8,8,8,5,5,5,5,2,2,2,2
</data>
 </layer>
</map>
